.local/share/icons/Gruvbox-Plus-Dark/actions/16/labplot-xy-equation-curve.svg

<svg xmlns="http://www.w3.org/2000/svg" width="16" height="16" viewBox="0 0 16 16">
 <defs>
  <style id="current-color-scheme" type="text/css">
   .ColorScheme-Text { color:#ebdbb2; } .ColorScheme-Highlight { color:#458588; }
  </style>
 </defs>
 <path style="fill:currentColor" class="ColorScheme-Text" d="M 8 1.0039062 C 7.06944 1.0039062 6.2703875 1.4993475 5.5546875 2.1484375 C 4.8389975 2.7975375 4.1768406 3.6248406 3.4941406 4.4316406 C 2.6496006 5.5986406 0.4955 7.1690938 0 7.4335938 L 0 8.5039062 C 1.272 8.5039062 1.3661375 9.2957288 2.3984375 10.355469 C 2.4381375 10.472889 2.4747406 10.593626 2.5253906 10.697266 C 2.6006906 10.851306 2.6643388 11.028861 2.9492188 11.150391 L 3.0683594 11.201172 L 3.1484375 11.191406 C 3.2624175 11.322486 3.3788175 11.442202 3.4921875 11.576172 C 4.1748675 12.382952 4.8389875 13.210275 5.5546875 13.859375 C 6.2703775 14.508475 7.0695 15.003906 8 15.003906 C 8.93055 15.003906 9.7296125 14.508555 10.445312 13.859375 C 11.161002 13.210285 11.823159 12.382972 12.505859 11.576172 C 13.871259 9.9625719 14.2709 8.5039062 16 8.5039062 L 16 7.5039062 C 15.21584 7.5039062 15.502292 7.1932037 14.826172 6.7148438 C 14.727272 6.6273438 14.62573 6.5414487 14.53125 6.4492188 C 14.24315 6.1680187 13.977827 5.8865094 13.742188 5.6621094 C 13.624378 5.5499194 13.516754 5.4518875 13.396484 5.3671875 C 13.363784 5.3440875 13.32058 5.3230813 13.28125 5.3007812 C 13.02121 5.0180212 12.761559 4.7338406 12.505859 4.4316406 C 11.823179 3.6248506 11.161012 2.7975375 10.445312 2.1484375 C 9.7296225 1.4993375 8.9305 1.0039062 8 1.0039062 z M 8 2.0039062 C 8.56944 2.0039062 9.1454375 2.321005 9.7734375 2.890625 C 10.401498 3.460275 11.051841 4.259925 11.744141 5.078125 C 11.865471 5.221505 12.00005 5.3614094 12.125 5.5058594 C 12.0658 5.5555594 12.008884 5.6096156 11.958984 5.6660156 C 11.724694 5.9307856 11.544636 6.2574156 11.378906 6.6347656 C 11.047456 7.3894856 10.781759 8.3448281 10.542969 9.2988281 C 10.304189 10.252838 10.094907 11.203138 9.9042969 11.898438 C 9.8624969 12.050768 9.8286025 12.12608 9.7890625 12.25 C 9.6955625 12.00078 9.6016838 11.753612 9.4960938 11.382812 C 9.2068037 10.367012 8.8926575 8.9850156 8.5859375 7.6035156 C 8.2792275 6.2220156 7.9795875 4.8400156 7.7109375 3.7910156 C 7.5766175 3.2665156 7.452255 2.8284237 7.328125 2.4960938 C 7.287425 2.3873137 7.2406325 2.3016075 7.1953125 2.2109375 C 7.4677125 2.0801175 7.73502 2.0039062 8 2.0039062 z M 6.4355469 2.9960938 C 6.5269469 3.2608637 6.6283975 3.5966556 6.7421875 4.0410156 C 7.0026375 5.0579156 7.301915 6.4355125 7.609375 7.8203125 C 7.916825 9.2052125 8.2329562 10.59515 8.5351562 11.65625 C 8.6862563 12.18683 8.830825 12.632043 8.984375 12.976562 C 9.061175 13.148833 9.1366775 13.295951 9.2421875 13.431641 C 9.2590875 13.453341 9.2903469 13.474947 9.3105469 13.498047 C 8.8577569 13.826467 8.4264 14.003906 8 14.003906 C 7.43055 14.003906 6.8545625 13.686817 6.2265625 13.117188 C 5.5985025 12.547537 4.9481594 11.749941 4.2558594 10.931641 C 4.1929594 10.857341 4.1223838 10.783724 4.0585938 10.708984 C 4.1008937 10.662884 4.1439906 10.617589 4.1816406 10.568359 C 4.4189206 10.257629 4.5950962 9.8791488 4.7539062 9.4492188 C 5.0715363 8.5893087 5.3034444 7.5191969 5.5214844 6.4667969 C 5.7395244 5.4143969 5.9429488 4.3789313 6.1679688 3.6445312 C 6.2573687 3.3527813 6.3500369 3.1624937 6.4355469 2.9960938 z M 4.9960938 4.2070312 C 4.8398937 4.8538712 4.6919387 5.5446719 4.5429688 6.2636719 C 4.3265787 7.3080719 4.0942462 8.3493625 3.8164062 9.1015625 C 3.6789362 9.4737225 3.528285 9.7726381 3.390625 9.9550781 C 3.349125 9.9098781 3.3115312 9.8631794 3.2695312 9.8183594 C 3.1766313 9.5044294 3.0795463 9.1065394 2.9726562 8.6933594 C 2.8583163 8.2514094 2.7384881 7.8082931 2.5800781 7.4394531 C 2.5213781 7.3026531 2.4533337 7.1782437 2.3710938 7.0585938 C 3.0579337 6.4628237 3.6774594 5.7597719 4.2558594 5.0761719 C 4.5096294 4.7762419 4.7526437 4.4912212 4.9960938 4.2070312 z M 12.792969 6.2617188 C 13.231809 6.7243888 13.700598 7.153095 14.205078 7.515625 C 14.418188 7.712325 14.641466 7.9010894 14.884766 8.0683594 C 13.660266 8.7254794 12.651388 9.8571406 11.742188 10.931641 C 11.466627 11.257311 11.202583 11.56892 10.939453 11.875 C 11.120853 11.17952 11.305342 10.375269 11.513672 9.5429688 C 11.747812 8.6075087 12.011242 7.6831094 12.294922 7.0371094 C 12.436762 6.7141494 12.586531 6.4623519 12.707031 6.3261719 C 12.765031 6.2605719 12.771369 6.2726187 12.792969 6.2617188 z M 1.5839844 7.6933594 C 1.6102844 7.7378594 1.6301094 7.7594544 1.6621094 7.8339844 C 1.7358094 8.0055444 1.8102556 8.2919544 1.8847656 8.5527344 C 1.5982856 8.3402244 1.2957219 8.1609663 0.98242188 8.0039062 C 1.1267519 7.9315062 1.2717563 7.8605906 1.4101562 7.7753906 C 1.4688563 7.7455906 1.5251244 7.7258594 1.5839844 7.6933594 z"/>
</svg>

<svg width="16" height="16" version="1.1" xmlns="http://www.w3.org/2000/svg">
  <defs>
    <style id="current-color-scheme" type="text/css">.ColorScheme-Text { color:#ebdbb2; } .ColorScheme-Highlight { color:#458588; }</style>
  </defs>
  <path class="ColorScheme-Text" d="m5.555 2.149c-0.7157 0.6491-1.378 1.476-2.061 2.283-0.8445 1.167-2.999 2.737-3.494 3.002v1.07c1.272 0 1.366 0.7918 2.398 1.852 0.0397 0.1174 0.0763 0.2382 0.127 0.3418 0.0753 0.154 0.1389 0.3316 0.4238 0.4531l0.1191 0.05078 0.08008-0.0098c0.114 0.1311 0.2304 0.2508 0.3438 0.3848 0.6827 0.8068 1.347 1.634 2.062 2.283 0.7157 0.6491 1.515 1.145 2.445 1.145 0.9306 0 1.73-0.4954 2.445-1.145 0.7157-0.6491 1.378-1.476 2.061-2.283 1.365-1.614 1.765-3.072 3.494-3.072v-1c-0.7842 0-0.4977-0.3107-1.174-0.7891-0.0989-0.0875-0.2004-0.1734-0.2949-0.2656-0.2881-0.2812-0.5534-0.5627-0.7891-0.7871-0.1178-0.1122-0.2254-0.2102-0.3457-0.2949-0.0327-0.0231-0.0759-0.04411-0.1152-0.06641-0.26-0.2828-0.5197-0.5669-0.7754-0.8691-0.6827-0.8068-1.345-1.634-2.061-2.283-0.7157-0.6491-1.515-1.145-2.445-1.145-0.9295-2.18e-4 -1.729 0.4952-2.444 1.145zm4.218 0.7417c0.6281 0.5696 1.278 1.369 1.971 2.188 0.1213 0.1434 0.2559 0.2833 0.3809 0.4277-0.0592 0.0497-0.1161 0.1038-0.166 0.1602-0.2343 0.2648-0.4143 0.5914-0.5801 0.9688-0.3314 0.7547-0.5971 1.71-0.8359 2.664s-0.4481 1.904-0.6387 2.6c-0.0418 0.1523-0.07569 0.2276-0.1152 0.3516-0.0935-0.2492-0.1874-0.4964-0.293-0.8672-0.2893-1.016-0.6034-2.398-0.9102-3.779-0.3067-1.382-0.6064-2.764-0.875-3.812-0.1343-0.5245-0.2587-0.9626-0.3828-1.295-0.0407-0.1088-0.08749-0.1945-0.1328-0.2852 0.2724-0.1308 0.5397-0.207 0.957-0.2078s0.9928 0.3163 1.621 0.8859zm-3.337 0.1055c0.0914 0.2648 0.1929 0.6006 0.3066 1.045 0.2604 1.017 0.5597 2.394 0.8672 3.779 0.3074 1.385 0.6236 2.775 0.9258 3.836 0.1511 0.5306 0.2957 0.9758 0.4492 1.32 0.0768 0.1723 0.1523 0.3194 0.2578 0.4551 0.0169 0.0217 0.04816 0.04331 0.06836 0.06641-0.4528 0.3284-0.8841 0.5059-1.311 0.5059-0.5694 0-1.145-0.3171-1.773-0.8867-0.6281-0.5697-1.278-1.367-1.971-2.186-0.0629-0.0743-0.1335-0.1479-0.1973-0.2227 0.0423-0.0461 0.0854-0.0914 0.123-0.1406 0.2373-0.3107 0.4135-0.6892 0.5723-1.119 0.3176-0.8599 0.5495-1.93 0.7676-2.982s0.4215-2.088 0.6465-2.822c0.0894-0.2917 0.1821-0.482 0.2676-0.6484zm-1.892 3.268c-0.2164 1.044-0.4487 2.086-0.7266 2.838-0.1375 0.3722-0.2881 0.6711-0.4258 0.8535-0.0415-0.0452-0.07909-0.0919-0.1211-0.1367-0.0929-0.3139-0.19-0.7118-0.2969-1.125-0.1143-0.442-0.2342-0.8851-0.3926-1.254-0.0587-0.1368-0.1267-0.2612-0.209-0.3809 0.6868-0.5958 1.306-1.299 1.885-1.982 0.2538-0.2999 0.4968-0.585 0.5404-0.404s-0.1044 0.8722-0.2534 1.591zm8.25-2e-3c0.4388 0.4627 0.9076 0.8914 1.412 1.254 0.2131 0.1967 0.4364 0.3855 0.6797 0.5527-1.224 0.6571-2.233 1.789-3.143 2.863-0.2756 0.3257-0.5396 0.6373-0.8027 0.9434 0.1814-0.6955 0.3659-1.5 0.5742-2.332 0.2341-0.9355 0.4976-1.86 0.7812-2.506 0.1418-0.323 0.2916-0.5748 0.4121-0.7109 0.058-0.0656 0.06434-0.05355 0.08594-0.06445zm-11.13 1.573c0.0737 0.1716 0.1481 0.458 0.2227 0.7188-0.2865-0.2125-0.589-0.3918-0.9023-0.5488 0.1443-0.0724 0.2893-0.1433 0.4277-0.2285 0.0587-0.0298 0.115-0.04953 0.1575-0.04356s0.06236 0.02756 0.09436 0.1021z" fill="currentColor"/>
</svg>
